X: 10
T: J'ay bien nori
N: Derived from Jap3010-Jay_bien_nori.krn
C: Jean Japart
%%abc-version 2.0
%%abcx-abcm2ps-target-version 5.9.1 (29 Sep 2008)
%%abc-creator hum2abc beta
%%abcx-conversion-date 2019/02/16 20:40:05
%%abc-edited-by Jesse Rodin
%%abc-edited-by Chris Gage 09-11-2013
%%abcx-initial-encoding-date 2013/10/23/
%%humdrum-veritas 3369955787
%%humdrum-veritas-data 3355740949
%%linebreak <none>
%%barnumbers 0
L: 1/4
M: 2/1
Q: 1/2=120
V: 1 clef=treble
V: 2 clef=treble-8
V: 3 clef=treble-8
K: F
[V:1] G8 | 
[V:2] z8 | 
[V:3] z8 | 
[V:1] G4G4 | 
[V:2] z8 | 
[V:3] G8 | 
[V:1] d8- | 
[V:2] z8 | 
[V:3] G4G4 | 
[V:1] d4d4 | 
[V:2] z8 | 
[V:3] d8 | 
[V:1] B6A2 | 
[V:2] G8 | 
[V:3] d4d4 | 
[V:1] G2B4AG | 
[V:2] G4G4 | 
[V:3] e4d4- | 
[V:1] F6G2 | 
[V:2] d8- | 
[V:3] d2c2B2AG | 
[V:1] A4B4 | 
[V:2] d4d4 | 
[V:3] F4G4 | 
[V:1] G4z4 | 
[V:2] e4d4 | 
[V:3] C2G3AB2- | 
[V:1] z4d4 | 
[V:2] c4B4 | 
[V:3] BAA4G2 | 
[V:1] c6BA | 
[V:2] A8 | 
[V:3] A6GF | 
[V:1] B2A4GF | 
[V:2] z4A4 | 
[V:3] G2F4ED | 
[V:1] E3FG2A2- | 
[V:2] c4c4 | 
[V:3] C3DE2F2- | 
[V:1] A2B2c4 | 
[V:2] c4c4 | 
[V:3] F2G2A4 | 
[V:1] B4A4- | 
[V:2] d6c2 | 
[V:3] G4F4 | 
[V:1] A2GFG4 | 
[V:2] B8 | 
[V:3] G8 | 
[V:1] A8- | 
[V:2] A8 | 
[V:3] z4D4- | 
[V:1] A8 | 
[V:2] z8 | 
[V:3] D4D4 | 
[V:1] z4F4 | 
[V:2] d8 | 
[V:3] D4z2D2 | 
[V:1] A4B4 | 
[V:2] d4d4 | 
[V:3] F4G4 | 
[V:1] c3BG2A2- | 
[V:2] c8- | 
[V:3] A3GE2F2- | 
[V:1] AGFED2G2- | 
[V:2] c4B4 | 
[V:3] FEF2G4 | 
[V:1] G2F2G2E2- | 
[V:2] A4G4 | 
[V:3] D4z4 | 
[V:1] EDD4^C2 | 
[V:2] F4E4 | 
[V:3] z4G4 | 
[V:1] D8- | 
[V:2] D8 | 
[V:3] A6B2- | 
[V:1] D8 | 
[V:2] z4D4 | 
[V:3] B2AGF2G2 | 
[V:1] z4D4 | 
[V:2] F4G4 | 
[V:3] A4B2G2 | 
[V:1] F4G4 | 
[V:2] A4G4 | 
[V:3] D4E4 | 
[V:1] A4G2c2- | 
[V:2] c8 | 
[V:3] F4G2A2- | 
[V:1] cBAGF2c2 | 
[V:2] A8 | 
[V:3] AGFED2F2 | 
[V:1] B2d4c2 | 
[V:2] G4d4- | 
[V:3] G2B4A2 | 
[V:1] B4A4- | 
[V:2] d4c4 | 
[V:3] G2D2F4 | 
[V:1] A2G2G4- | 
[V:2] B4G4 | 
[V:3] G4E4 | 
[V:1] G4^F4 | 
[V:2] A8 | 
[V:3] D8 | 
[V:1] G8 | 
[V:2] G8- | 
[V:3] [M:2/1]z2G2G2G2 | 
[V:1] z8 | 
[V:2] G8 | 
[V:3] d6d2 | 
[V:1] [M:2/1]G4G2G2 | 
[V:2] [M:2/1]z8 | 
[V:3] e2e2e2e2 | 
[V:1] d6d2 | 
[V:2] z8 | 
[V:3] d3cBAG2- | 
[V:1] e2d2c2B2 | 
[V:2] G4G2G2 | 
[V:3] GAB3AG2 | 
[V:1] A4z2A2 | 
[V:2] d6d2 | 
[V:3] F2D2G2D2 | 
[V:1] c2d2e2d2- | 
[V:2] e2d2c2B2 | 
[V:3] A2B2c2d2 | 
[V:1] d2c2d2cB | 
[V:2] A4z2A2 | 
[V:3] e4d2f2 | 
[V:1] A4z4 | 
[V:2] c2c2c2c2 | 
[V:3] edcBA2c2 | 
[V:1] z2d2d2d2 | 
[V:2] d3cB4 | 
[V:3] B2G3FG2 | 
[V:1] c3BA2G2 | 
[V:2] A4z4 | 
[V:3] A3GF2E2 | 
[V:1] F3ED4 | 
[V:2] d4d2d2 | 
[V:3] D4z2D2 | 
[V:1] z8 | 
[V:2] c6B2 | 
[V:3] F3GA2B2 | 
[V:1] z8 | 
[V:2] A2G2F2E2 | 
[V:3] c2d4^c2 | 
[V:1] z2D2F3G | 
[V:2] D4z2D2 | 
[V:3] d4A4 | 
[V:1] A2G2c2BA | 
[V:2] F2G2A2G2 | 
[V:3] z2E2F2G2 | 
[V:1] G2A3Bcd | 
[V:2] c4A4 | 
[V:3] E2F3GA2 | 
[V:1] B3AB2A2- | 
[V:2] G2d4c2 | 
[V:3] B2G3DF2 | 
[V:1] AGG4^F2 | 
[V:2] B2G2A4 | 
[V:3] G4D4 | 
[V:1] G8 |]  
[V:2] G8 |]  
[V:3] G8 |]  



